public/img/overview/icons/white/wheat.svg

<?xml version="1.0" encoding="UTF-8"?>
<svg width="61px" height="54px" viewBox="0 0 61 54" version="1.1" xmlns="http://www.w3.org/2000/svg" xmlns:xlink="http://www.w3.org/1999/xlink">
    <!-- Generator: Sketch 55 (78076) - https://sketchapp.com -->
    <title>whnoun_Wheat_1451274 2 Copy</title>
    <desc>Created with Sketch.</desc>
    <defs>
        <path d="M34.5402333,10.550925 C34.0230889,12.739275 32.4201444,14.557725 30.5176222,15.76665 L30.4830556,15.76665 C28.5798556,14.557725 26.9769111,12.739275 26.4597667,10.550925 C25.5556111,6.7284 27.9244444,2.918025 30.5,0.29565 C33.0755556,2.91735 35.4443889,6.727725 34.5402333,10.550925 Z M32.7109111,17.04375 C34.5212556,14.13045 38.3412111,13.236075 41.5532,13.2003 C41.5179556,16.399125 40.6192222,20.2041 37.6946111,22.00635 C36.0205,23.038425 33.9058333,23.17545 31.9836556,22.752225 L31.9626444,22.7313 C31.537,20.817 31.6752667,18.711 32.7109111,17.04375 Z M32.7109111,27.2862 C34.5212556,24.373575 38.3412111,23.478525 41.5532,23.443425 C41.5179556,26.64225 40.6192222,30.447225 37.6946111,32.249475 C36.0205,33.280875 33.9058333,33.4179 31.9836556,32.994675 L31.9626444,32.97375 C31.537,31.05945 31.6752667,28.95345 32.7109111,27.2862 Z M32.7109111,37.529325 C34.5212556,34.616025 38.3412111,33.72165 41.5532,33.68655 C41.5179556,36.885375 40.6192222,40.69035 37.6946111,42.4926 C36.0205,43.524 33.9058333,43.661025 31.9836556,43.2378 L31.9626444,43.216875 C31.537,41.302575 31.6752667,39.196575 32.7109111,37.529325 Z M32.7109111,47.771775 C34.5212556,44.85915 38.3412111,43.9641 41.5532,43.929 C41.5179556,47.127825 40.6192222,50.9328 37.6946111,52.73505 C36.0205,53.76645 33.9058333,53.903475 31.9836556,53.48025 L31.9626444,53.459325 C31.537,51.545025 31.6752667,49.439025 32.7109111,47.771775 Z M19.4461222,13.2003 C22.6587889,13.236075 26.4787444,14.13045 28.2884111,17.04375 C29.3240556,18.711 29.4616444,20.817 29.0366778,22.7313 L29.0156667,22.752225 C27.0934889,23.17545 24.9788222,23.03775 23.3047111,22.00635 C20.3801,20.2041 19.4813667,16.399125 19.4461222,13.2003 Z M19.4461222,23.443425 C22.6587889,23.478525 26.4787444,24.373575 28.2884111,27.2862 C29.3240556,28.95345 29.4616444,31.05945 29.0366778,32.97375 L29.0156667,32.994675 C27.0934889,33.418575 24.9788222,33.280875 23.3047111,32.249475 C20.3801,30.447225 19.4813667,26.64225 19.4461222,23.443425 Z M19.4461222,33.685875 C22.6587889,33.72165 26.4787444,34.616025 28.2884111,37.52865 C29.3240556,39.1959 29.4616444,41.3019 29.0366778,43.2162 L29.0156667,43.237125 C27.0934889,43.661025 24.9788222,43.523325 23.3047111,42.491925 C20.3801,40.689675 19.4813667,36.8847 19.4461222,33.685875 Z M19.4461222,43.929 C22.6587889,43.9641 26.4787444,44.85915 28.2884111,47.771775 C29.3240556,49.439025 29.4616444,51.545025 29.0366778,53.459325 L29.0156667,53.48025 C27.0934889,53.90415 24.9788222,53.76645 23.3047111,52.73505 C20.3801,50.9328 19.4813667,47.127825 19.4461222,43.929 Z M55.8434667,24.581475 C55.5059333,26.008425 54.4608,27.193725 53.2204667,27.9828 L53.1981,27.9828 C51.9570889,27.1944 50.9119556,26.008425 50.5744222,24.581475 C49.9847556,22.0887 51.5294111,19.604025 53.2089444,17.89425 C54.8884778,19.604025 56.4331333,22.0887 55.8434667,24.581475 Z M54.6505778,28.815075 C55.8305889,26.915625 58.3221,26.332425 60.4164333,26.3088 C60.3927111,28.39455 59.8071111,30.87585 57.8998444,32.051025 C56.8086222,32.723325 55.4293444,32.8131 54.1761333,32.537025 L54.1625778,32.523525 C53.8853667,31.27545 53.9748333,29.9025 54.6505778,28.815075 Z M54.6505778,35.4942 C55.8305889,33.59475 58.3221,33.010875 60.4164333,32.987925 C60.3927111,35.073675 59.8071111,37.554975 57.8998444,38.73015 C56.8086222,39.40245 55.4293444,39.492225 54.1761333,39.21615 L54.1625778,39.20265 C53.8853667,37.954575 53.9748333,36.581625 54.6505778,35.4942 Z M54.6505778,42.17265 C55.8305889,40.2732 58.3221,39.69 60.4164333,39.666375 C60.3927111,41.752125 59.8071111,44.233425 57.8998444,45.4086 C56.8086222,46.0809 55.4293444,46.170675 54.1761333,45.8946 L54.1625778,45.8811 C53.8853667,44.633025 53.9748333,43.260075 54.6505778,42.17265 Z M54.6505778,48.851775 C55.8305889,46.952325 58.3221,46.369125 60.4164333,46.3455 C60.3927111,48.43125 59.8071111,50.91255 57.8998444,52.087725 C56.8086222,52.760025 55.4293444,52.8498 54.1761333,52.573725 L54.1625778,52.560225 C53.8853667,51.31215 53.9748333,49.9392 54.6505778,48.851775 Z M46.0014556,26.3088 C48.0957889,26.332425 50.5866222,26.915625 51.7673111,28.815075 C52.4423778,29.901825 52.5325222,31.27545 52.2553111,32.523525 L52.2417556,32.537025 C50.9885444,32.8131 49.6099444,32.724 48.5180444,32.051025 C46.6107778,30.87585 46.0245,28.39455 46.0014556,26.3088 Z M46.0014556,32.987925 C48.0957889,33.010875 50.5866222,33.59475 51.7673111,35.4942 C52.4423778,36.58095 52.5325222,37.954575 52.2553111,39.20265 L52.2417556,39.21615 C50.9885444,39.492225 49.6099444,39.403125 48.5180444,38.73015 C46.6107778,37.554975 46.0245,35.073675 46.0014556,32.987925 Z M46.0014556,39.66705 C48.0957889,39.69 50.5866222,40.2732 51.7673111,42.173325 C52.4423778,43.260075 52.5325222,44.6337 52.2553111,45.881775 L52.2417556,45.895275 C50.9885444,46.17135 49.6099444,46.08225 48.5180444,45.409275 C46.6107778,44.2341 46.0245,41.7528 46.0014556,39.66705 Z M46.0014556,46.346175 C48.0957889,46.369125 50.5866222,46.952325 51.7673111,48.85245 C52.4423778,49.9392 52.5325222,51.312825 52.2553111,52.5609 L52.2417556,52.5744 C50.9885444,52.850475 49.6099444,52.761375 48.5180444,52.0884 C46.6107778,50.913225 46.0245,48.431925 46.0014556,46.346175 Z M10.4255778,24.219675 C10.0880444,25.646625 9.04358889,26.8326 7.80257778,27.621 L7.78021111,27.621 C6.5392,26.8326 5.49406667,25.646625 5.15653333,24.219675 C4.56686667,21.7269 6.11152222,19.242225 7.79105556,17.53245 C9.47058889,19.242225 11.0152444,21.7269 10.4255778,24.219675 Z M9.23268889,28.45395 C10.4133778,26.553825 12.9042111,25.970625 14.9985444,25.947675 C14.9748222,28.033425 14.3892222,30.514725 12.4819556,31.6899 C11.3907333,32.3622 10.0114556,32.451975 8.75824444,32.1759 L8.74468889,32.1624 C8.46747778,30.914325 8.55694444,29.541375 9.23268889,28.45395 Z M9.23268889,35.1324 C10.4133778,33.23295 12.9042111,32.64975 14.9985444,32.626125 C14.9748222,34.711875 14.3892222,37.193175 12.4819556,38.36835 C11.3907333,39.04065 10.0114556,39.130425 8.75824444,38.85435 L8.74468889,38.84085 C8.46747778,37.592775 8.55694444,36.219825 9.23268889,35.1324 Z M9.23268889,41.811525 C10.4133778,39.912075 12.9042111,39.328875 14.9985444,39.30525 C14.9748222,41.391 14.3892222,43.8723 12.4819556,45.047475 C11.3907333,45.719775 10.0114556,45.80955 8.75824444,45.533475 L8.74468889,45.519975 C8.46747778,44.2719 8.55694444,42.89895 9.23268889,41.811525 Z M9.23268889,48.49065 C10.4133778,46.5912 12.9042111,46.007325 14.9985444,45.984375 C14.9748222,48.070125 14.3892222,50.551425 12.4819556,51.7266 C11.3907333,52.3989 10.0114556,52.488675 8.75824444,52.2126 L8.74468889,52.1991 C8.46747778,50.951025 8.55694444,49.578075 9.23268889,48.49065 Z M0.583566667,25.947675 C2.6779,25.970625 5.16941111,26.553825 6.34942222,28.45395 C7.02448889,29.5407 7.11463333,30.914325 6.83742222,32.1624 L6.82386667,32.1759 C5.57065556,32.451975 4.19205556,32.362875 3.10015556,31.6899 C1.19288889,30.514725 0.606611111,28.033425 0.583566667,25.947675 Z M0.583566667,32.6268 C2.6779,32.64975 5.16941111,33.23295 6.34942222,35.133075 C7.02448889,36.219825 7.11463333,37.59345 6.83742222,38.841525 L6.82386667,38.855025 C5.57065556,39.1311 4.19205556,39.042 3.10015556,38.369025 C1.19288889,37.19385 0.606611111,34.71255 0.583566667,32.6268 Z M0.583566667,39.30525 C2.6779,39.328875 5.16941111,39.912075 6.34942222,41.811525 C7.02448889,42.898275 7.11463333,44.2719 6.83742222,45.519975 L6.82386667,45.533475 C5.57065556,45.80955 4.19205556,45.72045 3.10015556,45.047475 C1.19288889,43.8723 0.606611111,41.391 0.583566667,39.30525 Z M0.583566667,45.984375 C2.6779,46.007325 5.16941111,46.5912 6.34942222,48.49065 C7.02448889,49.5774 7.11463333,50.951025 6.83742222,52.1991 L6.82386667,52.2126 C5.57065556,52.488675 4.19205556,52.399575 3.10015556,51.7266 C1.19288889,50.551425 0.606611111,48.070125 0.583566667,45.984375 Z" id="path-1"></path>
    </defs>
    <g id="Frontend" stroke="none" stroke-width="1" fill="none" fill-rule="evenodd">
        <g id="noun_Wheat_1451274-2-Copy">
            <g id="noun_Wheat_1451274">
                <g id="Group-2">
                    <g id="Mask-2"></g>
                    <mask id="mask-2" fill="white">
                        <use xlink:href="#path-1"></use>
                    </mask>
                    <use id="Mask" fill="#FFFFFF" xlink:href="#path-1"></use>
                </g>
            </g>
        </g>
    </g>
</svg>

<svg width="61" height="54" xmlns="http://www.w3.org/2000/svg" xmlns:xlink="http://www.w3.org/1999/xlink"><defs><path d="M34.54 10.55c-.517 2.19-2.12 4.008-4.022 5.217h-.035c-1.903-1.21-3.506-3.028-4.023-5.216-.904-3.823 1.464-7.633 4.04-10.255 2.576 2.621 4.944 6.432 4.04 10.255zm-1.83 6.494c1.811-2.914 5.631-3.808 8.843-3.844-.035 3.2-.934 7.004-3.858 8.806-1.675 1.032-3.79 1.17-5.711.746l-.021-.02c-.426-1.915-.288-4.021.748-5.688zm0 10.242c1.811-2.912 5.631-3.807 8.843-3.843-.035 3.2-.934 7.004-3.858 8.806-1.675 1.032-3.79 1.169-5.711.746l-.021-.021c-.426-1.915-.288-4.02.748-5.688zm0 10.243c1.811-2.913 5.631-3.807 8.843-3.842-.035 3.198-.934 7.003-3.858 8.806-1.675 1.031-3.79 1.168-5.711.745l-.021-.021c-.426-1.914-.288-4.02.748-5.688zm0 10.243c1.811-2.913 5.631-3.808 8.843-3.843-.035 3.199-.934 7.004-3.858 8.806-1.675 1.031-3.79 1.168-5.711.745l-.021-.02c-.426-1.915-.288-4.021.748-5.688zM19.447 13.2c3.213.036 7.033.93 8.842 3.844 1.036 1.667 1.174 3.773.749 5.687l-.021.021c-1.923.423-4.037.286-5.711-.746-2.925-1.802-3.824-5.607-3.859-8.806zm0 10.243c3.213.036 7.033.93 8.842 3.843 1.036 1.667 1.174 3.773.749 5.688l-.021.02c-1.923.425-4.037.287-5.711-.745-2.925-1.802-3.824-5.607-3.859-8.806zm0 10.243c3.213.036 7.033.93 8.842 3.843 1.036 1.667 1.174 3.773.749 5.687l-.021.021c-1.923.424-4.037.286-5.711-.745-2.925-1.802-3.824-5.607-3.859-8.806zm0 10.243c3.213.035 7.033.93 8.842 3.843 1.036 1.667 1.174 3.773.749 5.687l-.021.021c-1.923.424-4.037.286-5.711-.745-2.925-1.802-3.824-5.607-3.859-8.806zm36.397-19.348c-.337 1.427-1.382 2.613-2.623 3.402h-.022c-1.24-.789-2.286-1.975-2.624-3.402-.59-2.492.955-4.977 2.635-6.687 1.68 1.71 3.224 4.195 2.634 6.687zm-1.192 4.234c1.18-1.9 3.671-2.483 5.765-2.506-.023 2.086-.609 4.567-2.516 5.742-1.091.672-2.47.762-3.724.486l-.013-.013c-.278-1.249-.188-2.622.488-3.709zm0 6.68c1.18-1.9 3.671-2.484 5.765-2.507-.023 2.086-.609 4.567-2.516 5.742-1.091.672-2.47.762-3.724.486l-.013-.013c-.278-1.248-.188-2.621.488-3.709zm0 6.678c1.18-1.9 3.671-2.483 5.765-2.507-.023 2.086-.609 4.567-2.516 5.743-1.091.672-2.47.762-3.724.486l-.013-.014c-.278-1.248-.188-2.62.488-3.708zm0 6.679c1.18-1.9 3.671-2.483 5.765-2.506-.023 2.085-.609 4.567-2.516 5.742-1.091.672-2.47.762-3.724.486l-.013-.014c-.278-1.248-.188-2.62.488-3.708zM46 26.309c2.095.023 4.586.607 5.766 2.506.675 1.087.766 2.46.488 3.709l-.013.013c-1.253.276-2.632.187-3.724-.486-1.907-1.175-2.493-3.656-2.517-5.742zm0 6.679c2.095.023 4.586.607 5.766 2.506.675 1.087.766 2.46.488 3.709l-.013.013c-1.253.276-2.632.187-3.724-.486-1.907-1.175-2.493-3.656-2.517-5.742zm0 6.68c2.095.022 4.586.605 5.766 2.505.675 1.087.766 2.46.488 3.709l-.013.013c-1.253.276-2.632.187-3.724-.486-1.907-1.175-2.493-3.656-2.517-5.742zm0 6.678c2.095.023 4.586.606 5.766 2.506.675 1.087.766 2.46.488 3.709l-.013.013c-1.253.276-2.632.187-3.724-.486-1.907-1.175-2.493-3.656-2.517-5.742zM10.426 24.22c-.338 1.427-1.382 2.613-2.623 3.401H7.78c-1.24-.788-2.286-1.974-2.623-3.401-.59-2.493.955-4.978 2.634-6.688 1.68 1.71 3.224 4.195 2.635 6.688zm-1.193 4.234c1.18-1.9 3.671-2.483 5.766-2.506-.024 2.085-.61 4.567-2.517 5.742-1.091.672-2.47.762-3.724.486l-.013-.014c-.278-1.248-.188-2.62.488-3.708zm0 6.678c1.18-1.899 3.671-2.482 5.766-2.506-.024 2.086-.61 4.567-2.517 5.742-1.091.673-2.47.762-3.724.486l-.013-.013c-.278-1.248-.188-2.621.488-3.709zm0 6.68c1.18-1.9 3.671-2.483 5.766-2.507-.024 2.086-.61 4.567-2.517 5.742-1.091.673-2.47.763-3.724.486l-.013-.013c-.278-1.248-.188-2.621.488-3.708zm0 6.679c1.18-1.9 3.671-2.484 5.766-2.507-.024 2.086-.61 4.567-2.517 5.743-1.091.672-2.47.762-3.724.486l-.013-.014c-.278-1.248-.188-2.62.488-3.708zM.583 25.948c2.095.023 4.586.606 5.766 2.506.675 1.087.766 2.46.488 3.708l-.013.014c-1.253.276-2.632.187-3.724-.486C1.193 30.515.607 28.033.584 25.948zm0 6.679c2.095.023 4.586.606 5.766 2.506.675 1.087.766 2.46.488 3.709l-.013.013c-1.253.276-2.632.187-3.724-.486C1.193 37.194.607 34.713.584 32.627zm0 6.678c2.095.024 4.586.607 5.766 2.507.675 1.086.766 2.46.488 3.708l-.013.013c-1.253.277-2.632.187-3.724-.486C1.193 43.872.607 41.391.584 39.305zm0 6.68c2.095.022 4.586.606 5.766 2.506.675 1.086.766 2.46.488 3.708l-.013.014c-1.253.276-2.632.187-3.724-.486C1.193 50.55.607 48.07.584 45.984z" id="a"/></defs><use fill="#FFF" xlink:href="#a" fill-rule="evenodd"/></svg>
